X:1
T:Owenmore [1], The
M:3/4
L:1/8
K:F
FG|A2 fedc|d2 cBAF|G2 DFGA|G2F2F2|F4:||
ce|dcAcde|f2 fagf|e2 dfed|d2c2c2|{d}c4 ce|
d2 Acde|f3 agf|e2 dfec|d2c2c2|{d}c4 Ac|
d2 dfec|d2 cAGF|G2 DFGA|G2F2F2|F4||

